packages/symbols/svgs/duotone/text-duotone.svg

<svg width="24" height="24" viewBox="0 0 24 24" fill="none" xmlns="http://www.w3.org/2000/svg">
<path fill-rule="evenodd" clip-rule="evenodd" d="M1 1C1 0.447715 1.44772 0 2 0L12 0L22 0C22.5523 0 23 0.447715 23 1V4C23 4.55228 22.5523 5 22 5C21.4477 5 21 4.55228 21 4V2H13V22H17C17.5523 22 18 22.4477 18 23C18 23.5523 17.5523 24 17 24H12H7C6.44772 24 6 23.5523 6 23C6 22.4477 6.44772 22 7 22H11V2H3V4C3 4.55228 2.55228 5 2 5C1.44772 5 1 4.55228 1 4V1Z" fill="black"/>
</svg>

<svg width="24" height="24" viewBox="0 0 24 24" xmlns="http://www.w3.org/2000/svg"><path fill-rule="evenodd" clip-rule="evenodd" d="M1 1a1 1 0 0 1 1-1h20a1 1 0 0 1 1 1v3a1 1 0 1 1-2 0V2h-8v20h4a1 1 0 1 1 0 2H7a1 1 0 1 1 0-2h4V2H3v2a1 1 0 0 1-2 0V1Z"/></svg>
